X: 3
T: Sweeney's Dream
R: reel
M: 4/4
L: 1/8
K: Dmaj
d2 FG Adef | gfed fdBc | d2 FG A2 AB | AFEG FDDA |d2 FG Adef | gfed fdBc | d2 FG A2 ag | faef d2 || afbf afdf | gfed cd (3efg | afbf afdf | abag fd (3efg |afbf afdf | gfed fdBc | d2 FG A2 ag | faef d2 |]


Tune 1459	Setting 14850

